X:0228
T:French Taptoo.
M:2/4
L:1/8
Q:1/4=120
I: :: ::
Z:Jack Campin * www.campin.me.uk * 2009
K:G
D|GBAG            | d2       Bd   | edcB      |(A/G/)(A/B/) AD     |\
  GBAG            | d2       Bd   | edcB      | A3                :|
d|ec       AB/c/  | d>BGd         |cBAG       |(A/G/)(F/E/) D(B/c/)|\
 .d(B/c/) .d(A/B/)|.c(A/B/) .cd/c/|B/A/G/A/ BA| G3                :|

